X:261
T: Xinnongcun xiaochang
N: C1758
O: China,Shandong Linqing
S: III, 326]
R: Xiaodiao, Shidiao, Yingxiong diao]
M: 2/4
L: 1/16
K: C
e4e2d2 | e2d2c4 | c3ed2c2 | d2A2G4- | G4
c4 | c3cc2c2 | c4G4 | E4D4 | G2G2G2D2 | C6D2 | C8 |
e2edc2e2 | d2c6 | c2AcA4 | G8 |
G3Ac2c2 | c4G4 | G2A2E2D2 | C8 |
D2D4E2 | G6c2 | A2G2E2D2 | C8 |
c2Adc2c2 | c4A2c2 | A4G4 |
c4d4 | c4AGF2 | G8- | G4z4

@@@ Tune index: 6816
